app/client/src/assets/icons/blueprintjs/16px/inbox-geo.svg

<svg xmlns="http://www.w3.org/2000/svg" width="16" height="16"><path fill-rule="nonzero" d="M6.341 2A5.99 5.99 0 0 0 6 4H3.66L1.95 8H4c.55 0 1 .45 1 1v1h7a5.978 5.978 0 0 0 4-1.528V13c0 .55-.45 1-1 1H1c-.55 0-1-.45-1-1V7.46l2.08-4.85C2.23 2.25 2.59 2 3 2h3.341Zm3.679 2.145c0-.125.075-.23.205-.225h.345l.79.8c.005 0 0 .005 0 .005v.295c0 .13-.085.23-.215.23h-.07v.15c0 .13-.09.2-.215.2v.535c0 .125-.12.225-.245.225s-.245-.1-.245-.225V5.25h-.145c-.125 0-.205-.1-.205-.23v-.875Zm2.235-2.195c-.03 0-.055-.005-.06-.035 0-.03.03-.035.06-.035h.11c.035 0 .06.005.06.035 0 .03-.03.035-.06.035h-.11Zm-1.165-.025a.094.094 0 0 1-.13 0l-.25-.25a.094.094 0 0 1 0-.13.094.094 0 0 1 .13 0l.25.25a.094.094 0 0 1 0 .13Zm1.53.445c-.035 0-.07-.025-.07-.06v-.155c0-.03.035-.06.07-.06s.07.025.07.06v.155c0 .03-.035.06-.07.06ZM12 0c2.21 0 4 1.79 4 4s-1.79 4-4 4-4-1.79-4-4 1.79-4 4-4Zm0 7c1.655 0 3-1.345 3-3 0-.195-.02-.39-.06-.575h-.21c-.125 0-.225-.07-.23-.21h-.215c.075.07.155.14.155.23V3.9c0 .06-.04.115-.075.155h-.015l-.01.005-.015.01-.445.43v.815c0 .13-.07.22-.2.22h-.36c-.125 0-.21-.09-.21-.22v-.84a.627.627 0 0 0-.36-.345h-.45c-.13 0-.245-.095-.245-.225v-.46c0-.125.115-.23.245-.23l.13-.005.21-.215c.09-.09.24-.09.33 0l.22.225h.47c.105 0 .155-.105.225-.21v-.075h-.205a.106.106 0 0 1-.105-.105.11.11 0 0 1 .105-.105h.18l.025.005v-.12s-.03-.025-.04-.025h-.2l-.045.05a.235.235 0 0 1-.33.005l-.045-.06h-.115l.16.175c.015.015.015.06 0 .075-.02.015-.045.02-.06.005l-.195-.185h-.085l-.245.23-.02-.005c-.025.07-.06.055-.095.055-.085 0-.15-.045-.15-.13s.065-.14.15-.14h.115v-.125c0-.06.04-.09.1-.09h.05V2.36c0-.095.095-.2.19-.2h.19c.105 0 .18-.075.18-.185V1.94c0-.015.035.01.035-.06h-.125l-.005.01-.21.22a.085.085 0 0 1-.115 0 .085.085 0 0 1 0-.115l.255-.255c.02-.015.045-.015.065-.015.005 0 .005.015.005.015h.64a2.327 2.327 0 0 0-.355-.275 2.452 2.452 0 0 0-.355-.195c-.03-.015-.055-.03-.08-.04a3.025 3.025 0 0 0-1.735-.175c-.09.02-.175.055-.265.08-.09.03-.18.05-.265.085-.075.03-.145.07-.22.105-.115.06-.235.115-.34.185l-.005.005c-.1.065-.18.145-.27.22h.455c.06 0 .11.045.11.105s-.05.105-.11.105h-.32c0 .07-.025.04-.025.045v.24h.285l.15-.17c.09-.09.235-.105.325-.015.09.09.09.23 0 .32l-.795.79-.01.01c-.005 0-.005 0-.01.005l-.025.015h-.01a.235.235 0 0 1-.12.025h-.23c-.08.07-.125.1-.125.18v.06c0 .01-.02.02-.02.03l.375.39c.04.04.04.1 0 .14-.04.04-.1.04-.14 0l-.39-.385a.213.213 0 0 1-.055.01c-.105 0-.195-.085-.195-.185v-.235h-.055A3.1 3.1 0 0 0 9 4c0 1.655 1.345 3 3 3Zm2.27-2.135c.05 0 .105.04.105.09v.285c0 .05-.055.09-.105.09-.05 0-.105-.04-.105-.09v-.285c0-.05.055-.09.105-.09Zm-2.085-3.27c0 .13-.105.21-.225.21h-.25v.07c0 .075-.03.135-.105.135s-.105-.06-.105-.135V1.64c-.075-.02-.025-.025-.025-.04 0-.125.085-.215.21-.215h.27c.13 0 .23.085.23.21Z"/></svg>

<?xml version="1.0" encoding="UTF-8"?>
<svg width="16px" height="16px" viewBox="0 0 16 16" version="1.1" xmlns="http://www.w3.org/2000/svg" xmlns:xlink="http://www.w3.org/1999/xlink">
    <!-- Generator: Sketch 52.6 (67491) - http://www.bohemiancoding.com/sketch -->
    <title>Artboard</title>
    <desc>Created with Sketch.</desc>
    <g id="Artboard" stroke="none" stroke-width="1" fill="none" fill-rule="evenodd">
        <g id="inbox-geo" fill="#000000" fill-rule="nonzero">
            <path d="M6.34141142,2 C6.12030844,2.62555785 6,3.29872915 6,4 L3.66,4 L1.95,8 L4,8 C4.55,8 5,8.45 5,9 L5,10 L11,10 C11.0043181,9.99981289 11.0086414,10 11.01297,10 C11.3622222,10 11.6636441,10 12,10 C13.5367089,10 14.938487,9.42229286 16,8.47221301 L16,13 C16,13.55 15.55,14 15,14 L1,14 C0.45,14 -7.63833441e-14,13.55 -7.63833441e-14,13 L-7.63833441e-14,7.46 L2.08,2.61 C2.23,2.25 2.59,2 3,2 L6.34141142,2 Z M10.02,4.145 C10.02,4.02 10.095,3.915 10.225,3.92 L10.57,3.92 L11.36,4.72 C11.365,4.72 11.36,4.725 11.36,4.725 L11.36,5.02 C11.36,5.15 11.275,5.25 11.145,5.25 L11.075,5.25 L11.075,5.4 C11.075,5.53 10.985,5.6 10.86,5.6 L10.86,6.135 C10.86,6.26 10.74,6.36 10.615,6.36 C10.49,6.36 10.37,6.26 10.37,6.135 L10.37,5.25 L10.225,5.25 C10.1,5.25 10.02,5.15 10.02,5.02 L10.02,4.145 Z M12.255,1.95 C12.225,1.95 12.2,1.945 12.195,1.915 C12.195,1.885 12.225,1.88 12.255,1.88 L12.365,1.88 C12.4,1.88 12.425,1.885 12.425,1.915 C12.425,1.945 12.395,1.95 12.365,1.95 L12.255,1.95 Z M11.09,1.925 C11.055,1.96 10.995,1.96 10.96,1.925 L10.71,1.675 C10.675,1.64 10.675,1.58 10.71,1.545 C10.745,1.51 10.805,1.51 10.84,1.545 L11.09,1.795 C11.125,1.83 11.125,1.89 11.09,1.925 Z M12.62,2.37 C12.585,2.37 12.55,2.345 12.55,2.31 L12.55,2.155 C12.55,2.125 12.585,2.095 12.62,2.095 C12.655,2.095 12.69,2.12 12.69,2.155 L12.69,2.31 C12.69,2.34 12.655,2.37 12.62,2.37 Z M12,0 C14.21,0 16,1.79 16,4 C16,6.21 14.21,8 12,8 C9.79,8 8,6.21 8,4 C8,1.79 9.79,0 12,0 Z M12,7 C13.655,7 15,5.655 15,4 C15,3.805 14.98,3.61 14.94,3.425 L14.73,3.425 C14.605,3.425 14.505,3.355 14.5,3.215 L14.285,3.215 C14.36,3.285 14.44,3.355 14.44,3.445 L14.44,3.9 C14.44,3.96 14.4,4.015 14.365,4.055 L14.35,4.055 L14.34,4.06 L14.325,4.07 L13.88,4.5 L13.88,5.315 C13.88,5.445 13.81,5.535 13.68,5.535 L13.32,5.535 C13.195,5.535 13.11,5.445 13.11,5.315 L13.11,4.475 C13.035,4.305 12.92,4.2 12.75,4.13 L12.3,4.13 C12.17,4.13 12.055,4.035 12.055,3.905 L12.055,3.445 C12.055,3.32 12.17,3.215 12.3,3.215 L12.43,3.21 L12.64,2.995 C12.73,2.905 12.88,2.905 12.97,2.995 L13.19,3.22 L13.66,3.22 C13.765,3.22 13.815,3.115 13.885,3.01 L13.885,2.935 C13.885,2.935 13.86,2.935 13.86,2.935 L13.68,2.935 C13.62,2.935 13.575,2.885 13.575,2.83 C13.575,2.775 13.625,2.725 13.68,2.725 L13.86,2.725 C13.86,2.725 13.885,2.73 13.885,2.73 L13.885,2.61 C13.885,2.61 13.855,2.585 13.845,2.585 L13.645,2.585 L13.6,2.635 C13.51,2.725 13.36,2.73 13.27,2.64 L13.225,2.58 L13.11,2.58 L13.27,2.755 C13.285,2.77 13.285,2.815 13.27,2.83 C13.25,2.845 13.225,2.85 13.21,2.835 L13.015,2.65 L12.93,2.65 L12.685,2.88 L12.665,2.875 C12.64,2.945 12.605,2.93 12.57,2.93 C12.485,2.93 12.42,2.885 12.42,2.8 C12.42,2.715 12.485,2.66 12.57,2.66 L12.685,2.66 C12.685,2.66 12.685,2.565 12.685,2.535 C12.685,2.475 12.725,2.445 12.785,2.445 L12.835,2.445 L12.835,2.36 C12.835,2.265 12.93,2.16 13.025,2.16 L13.215,2.16 C13.32,2.16 13.395,2.085 13.395,1.975 L13.395,1.94 C13.395,1.925 13.43,1.95 13.43,1.88 L13.305,1.88 C13.305,1.88 13.3,1.89 13.3,1.89 L13.09,2.11 C13.06,2.14 13.005,2.14 12.975,2.11 C12.945,2.08 12.945,2.025 12.975,1.995 L13.23,1.74 C13.25,1.725 13.275,1.725 13.295,1.725 C13.3,1.725 13.3,1.74 13.3,1.74 L13.94,1.74 C13.83,1.635 13.71,1.545 13.585,1.465 C13.47,1.39 13.355,1.325 13.23,1.27 C13.2,1.255 13.175,1.24 13.15,1.23 C12.795,1.085 12.41,1 12,1 C11.8,1 11.605,1.02 11.415,1.055 C11.325,1.075 11.24,1.11 11.15,1.135 C11.06,1.165 10.97,1.185 10.885,1.22 C10.81,1.25 10.74,1.29 10.665,1.325 C10.55,1.385 10.43,1.44 10.325,1.51 C10.325,1.51 10.32,1.515 10.32,1.515 C10.22,1.58 10.14,1.66 10.05,1.735 L10.505,1.735 C10.565,1.735 10.615,1.78 10.615,1.84 C10.615,1.9 10.565,1.945 10.505,1.945 L10.185,1.945 C10.185,2.015 10.16,1.985 10.16,1.99 L10.16,2.23 L10.445,2.23 L10.595,2.06 C10.685,1.97 10.83,1.955 10.92,2.045 C11.01,2.135 11.01,2.275 10.92,2.365 L10.125,3.155 L10.115,3.165 C10.11,3.165 10.11,3.165 10.105,3.17 C10.095,3.175 10.09,3.18 10.08,3.185 C10.08,3.185 10.075,3.185 10.07,3.185 C10.035,3.205 9.995,3.21 9.95,3.21 L9.72,3.21 C9.64,3.28 9.595,3.31 9.595,3.39 L9.595,3.45 C9.595,3.46 9.575,3.47 9.575,3.48 L9.95,3.87 C9.99,3.91 9.99,3.97 9.95,4.01 C9.91,4.05 9.85,4.05 9.81,4.01 L9.42,3.625 C9.405,3.63 9.38,3.635 9.365,3.635 C9.26,3.635 9.17,3.55 9.17,3.45 L9.17,3.215 L9.13,3.215 C9.125,3.215 9.12,3.215 9.115,3.215 C9.05,3.465 9,3.725 9,4 C9,5.655 10.345,7 12,7 Z M14.27,4.865 C14.32,4.865 14.375,4.905 14.375,4.955 L14.375,5.24 C14.375,5.29 14.32,5.33 14.27,5.33 C14.22,5.33 14.165,5.29 14.165,5.24 L14.165,4.955 C14.165,4.905 14.22,4.865 14.27,4.865 Z M12.185,1.595 C12.185,1.725 12.08,1.805 11.96,1.805 L11.71,1.805 L11.71,1.875 C11.71,1.95 11.68,2.01 11.605,2.01 C11.53,2.01 11.5,1.95 11.5,1.875 L11.5,1.64 C11.425,1.62 11.475,1.615 11.475,1.6 C11.475,1.475 11.56,1.385 11.685,1.385 L11.955,1.385 C12.085,1.385 12.185,1.47 12.185,1.595 Z" id="Shape"></path>
        </g>
    </g>
</svg>
